packages/core/icons/tp-sun.svg

<svg viewBox="0 0 24 24">
  <title>sun</title>
  <style>
    :host {
      --stroke: var(--tp-color-neutral-10);
      --stroke-width: 2;
    }

    :host {
      font-size: 24px;
      stroke: inherit;
    }

    :host path {
      stroke: var(--stroke);
      stroke-width: var(--stroke-width);
      fill: none;
      stroke-linecap: round;
      stroke-linejoin: round;
    }

    :host(.ion-color) path {
      --stroke: var(--ion-color-base) !important;
    }

    :host([tp-size='sm']) {
      /* --stroke-width: 1.5; */
      font-size: 16px;
    }

    :host([tp-size='md']) {
      /* --stroke-width: 3; */
      font-size: 32px;
    }

    :host([tp-size='lg']) {
      /* --stroke-width: 4; */
      font-size: 48px;
    }
  </style>
  <g clip-path="url(#clip0_14772_49139)">
    <path d="M1 12H3M12 21V23M18.36 18.36L19.78 19.78M4.22 19.78L5.64 18.36M21 12H23M18.36 5.64L19.78 4.22M4.22 4.22L5.64 5.64M12 1V3M17 12C17 14.7614 14.7614 17 12 17C9.23858 17 7 14.7614 7 12C7 9.23858 9.23858 7 12 7C14.7614 7 17 9.23858 17 12Z"/>
  </g>
  <defs>
    <clipPath id="clip0_14772_49139">
      <rect/>
    </clipPath>
  </defs>
</svg>

<svg viewBox="0 0 24 24">
  <title>sun</title>
  <style>
    :host {
      --stroke: var(--tp-color-neutral-10);
      --stroke-width: 2;
    }

    :host {
      font-size: 24px;
      stroke: inherit;
    }

    :host path {
      stroke: var(--stroke);
      stroke-width: var(--stroke-width);
      fill: none;
      stroke-linecap: round;
      stroke-linejoin: round;
    }

    :host(.ion-color) path {
      --stroke: var(--ion-color-base) !important;
    }

    :host([tp-size='sm']) {
      /* --stroke-width: 1.5; */
      font-size: 16px;
    }

    :host([tp-size='md']) {
      /* --stroke-width: 3; */
      font-size: 32px;
    }

    :host([tp-size='lg']) {
      /* --stroke-width: 4; */
      font-size: 48px;
    }
  </style>
  <path d="M1 12h2M12 21v2M18.36 18.36l1.42 1.42M4.22 19.78l1.42-1.42M21 12h2M18.36 5.64l1.42-1.42M4.22 4.22l1.42 1.42M12 1v2M17 12c0 2.761-2.239 5-5 5s-5-2.239-5-5c0-2.761 2.239-5 5-5s5 2.239 5 5z"></path>
</svg>
